X:087
T: Sleep On My Cathleen Dear
N: O'Farrell's Pocket Companion v.1 (Sky ed. p.20)
N: "Irish"
N: same melody as "Ban Chnuic Eireann O"
M: C
L: 1/8
Q: 120
K: G
B2|cBcd cBAG|G2 Bd e2 g>e| dBAG EDEG|G6 :|
de|=fefg fedB|d2 eg g2 de|=fege edge|dB c/B/A/G/ E2D d/e/|
=fefg eg e/d/B/A/|G/E/G/A/ B/A/B/d/ e2 Hg>e|
dB c/B/A/G/ EDEG| G6 ||
